X: 1
T: the New Water Kettle
M: 6/8
L: 1/8
R: Jig
B: Gow - 4th Repository
Z: AK/Fiddler's Companion
N: Suggested tune for the SCD "Barley Bree"
K: F
|:\
cAF F3 | {EF}F3 {EF}F3 | {EF}cAF F3 | {EF}GAF EDC |\
cAF F3 | {EF}F3 {EF}cBA | def cBA | GAF EDC :|
[|\
cBA f2c | f2c f2d | cBA f2A | GAF EDC |\
cBA f2c | fed cBA | dcB AGF | EGF EDC |]
[|\
cBA f2c | f2c f2d | cBA fcA | GAF EDC |\
cBA agf | edc fed | cBA dcB | AGF EDC |]
